X: 174
T: the Countess of Dalkeith's Favorite
R: jig
Q: "Slow"
B: William Shepherd "2nd Collection" 1800 p.17 #4
F: http://imslp.org/wiki/File:PMLP73094-Shepherd_Collections_HMT.pdf
C: William Shepherd (17??-1812)
Z: 2012 John Chambers <jc:trillian.mit.edu>
M: 6/8
L: 1/8
K: Em
B, |\
TE2F G2A | TB2B B2c | d2d d>cB | A>BA F>ED |\
TE2F G2A | TB2B Bef | g2e {g}fe^d | e3 TE2 :|
B |\
e2f g2f | e>ba g>fe | Td2d d2G | A>BG F>ED |\
e2f g2f | e>ba g>fe | {a}g>fe {f}f>e^d | e3 E2 ||
B |\
e2f g2f | e>ba g>fe | Td2d d2G | A>BG F>ED |\
E>B,E F>DF | G>EG A>FA | E>ge fB^d | e3 TE2 |]
